Sources/FrostedUI/Resources/Icons.xcassets/rotate32.imageset/rotate-32.svg

<svg width="32" height="32" viewBox="0 0 32 32" fill="none" xmlns="http://www.w3.org/2000/svg" data-fui-icon="true">
  <path
    fill-rule="evenodd"
    clip-rule="evenodd"
    d="M4.50148 18C3.25878 18 2.2505 19.007 2.2505 20.25V26.25C2.2505 26.6642 2.58629 27 3.0005 27C3.41449 26.9997 3.7505 26.664 3.7505 26.25V20.6191C4.94747 24.7176 8.72911 29.75 16.2573 29.75C23.5644 29.7497 28.5388 24.9792 29.7349 18.8945C29.8146 18.4883 29.5493 18.0937 29.1431 18.0137C28.7367 17.9339 28.3421 18.1991 28.2622 18.6055C27.1972 24.0229 22.8111 28.2497 16.2573 28.25C9.12819 28.25 5.81399 23.2136 5.01222 19.5H10.5044C10.9183 19.4997 11.2544 19.164 11.2544 18.75C11.2544 18.336 10.9183 18.0003 10.5044 18H4.50148ZM15.7407 2.25C8.43381 2.25033 3.4593 7.02085 2.2632 13.1055C2.18351 13.5117 2.44889 13.9063 2.855 13.9863C3.26133 14.0661 3.65594 13.8009 3.73586 13.3945C4.80088 7.97716 9.18711 3.75033 15.7407 3.75C22.8699 3.75 26.1841 8.78639 26.9859 12.5H21.4937C21.0798 12.5004 20.7437 12.8361 20.7437 13.25C20.7437 13.6639 21.0798 13.9996 21.4937 14H27.4966C28.7393 14 29.7476 12.993 29.7476 11.75V5.75C29.7476 5.33579 29.4118 5 28.9976 5C28.5837 5.00035 28.2476 5.336 28.2476 5.75V11.3809C27.0506 7.28241 23.2689 2.25 15.7407 2.25Z"
    fill="currentColor"
  />
</svg>

<svg xmlns="http://www.w3.org/2000/svg" width="32" height="32" fill="none" data-fui-icon="true" viewBox="0 0 32 32"><path fill="currentColor" fill-rule="evenodd" d="M4.501 18a2.25 2.25 0 0 0-2.25 2.25v6a.75.75 0 0 0 1.5 0v-5.63c1.196 4.098 4.978 9.13 12.506 9.13 7.307 0 12.282-4.77 13.478-10.855a.751.751 0 0 0-1.473-.29c-1.065 5.418-5.45 9.645-12.005 9.645-7.129 0-10.443-5.036-11.245-8.75h5.492a.75.75 0 0 0 0-1.5zm11.24-15.75c-7.307 0-12.282 4.77-13.478 10.856a.751.751 0 0 0 1.473.289C4.8 7.977 9.187 3.75 15.74 3.75c7.129 0 10.443 5.036 11.245 8.75h-5.492a.75.75 0 0 0 0 1.5h6.003a2.25 2.25 0 0 0 2.25-2.25v-6a.75.75 0 0 0-1.5 0v5.63c-1.196-4.098-4.978-9.13-12.506-9.13" clip-rule="evenodd"/></svg>
